X:437
T:drum test
Q:1/4=140 
M:3/4
L:1/4
K:G
| A B C | g f a 
%%MIDI drum dzd
| A B C | g f a 
%%MIDI drum dzdzdz 48 49 50 100 90 50
| A B C | g f a 
%%MIDI drum ddzzdz
| A B C | g f a 
%%MIDI drum dddzzz
| A B C | g f a 
%%MIDI drumbars 3
%%MIDI drum dzzzdzzzd
| A B C | g f a 
| A B C | g f a 